src/assets/skills/itunes-connect.svg

<svg height="100pt" viewBox="0 0 100 100" width="100pt" xmlns="http://www.w3.org/2000/svg"><path d="m35.672 83.653c-1.38-.92-2.604-2.048-3.627-3.351-1.118-1.349-2.152-2.771-3.103-4.24-2.232-3.264-3.979-6.836-5.188-10.599-1.458-4.379-2.167-8.571-2.167-12.672 0-4.576.991-8.571 2.921-11.922 1.428-2.624 3.558-4.819 6.122-6.36 2.477-1.546 5.363-2.39 8.28-2.449 1.021 0 2.127.146 3.295.437.846.234 1.865.612 3.12 1.078 1.602.612 2.477.991 2.77 1.078.933.35 1.72.496 2.332.496.466 0 1.137-.146 1.881-.378.422-.146 1.224-.409 2.361-.903 1.126-.409 2.018-.759 2.726-1.021 1.078-.321 2.123-.612 3.061-.759 1.137-.174 2.265-.234 3.347-.146 2.071.146 3.964.584 5.657 1.224 2.973 1.196 5.371 3.061 7.162 5.713-.759.466-1.458 1.008-2.114 1.603-1.419 1.253-2.624 2.739-3.586 4.388-1.253 2.245-1.895 4.781-1.878 7.346.044 3.157.846 5.931 2.449 8.336 1.128 1.749 2.634 3.247 4.471 4.478.903.612 1.696 1.034 2.449 1.312-.35 1.093-.735 2.158-1.181 3.207-1.012 2.353-2.215 4.607-3.645 6.734-1.259 1.837-2.249 3.207-3.002 4.11-1.171 1.4-2.302 2.449-3.439 3.199-1.252.831-2.726 1.27-4.232 1.27-1.021.044-2.04-.087-3.015-.369-.846-.278-1.679-.588-2.495-.943-.855-.391-1.738-.723-2.639-.99-1.108-.291-2.245-.431-3.393-.428-1.165 0-2.302.146-3.382.421-.903.256-1.778.571-2.644.947-1.224.51-2.026.846-2.492.991-.945.279-1.913.448-2.886.509-1.515 0-2.928-.437-4.294-1.349zm19.981-53.812c-1.983.99-3.866 1.41-5.752 1.27-.291-1.882 0-3.819.787-5.938.699-1.808 1.633-3.439 2.914-4.897 1.34-1.515 2.945-2.77 4.751-3.673 1.924-.991 3.76-1.516 5.509-1.603.234 1.983 0 3.935-.728 6.034-.664 1.865-1.655 3.586-2.914 5.132-1.268 1.515-2.842 2.77-4.567 3.675z" fill="#999"/></svg>

<?xml version="1.0" encoding="UTF-8" standalone="no"?><!-- Generator: Gravit.io --><svg xmlns="http://www.w3.org/2000/svg" xmlns:xlink="http://www.w3.org/1999/xlink" style="isolation:isolate" viewBox="0 0 100 100" width="100pt" height="100pt"><path d=" M 35.672 83.653 C 34.292 82.733 33.068 81.605 32.045 80.302 C 30.927 78.953 29.893 77.531 28.942 76.062 C 26.71 72.798 24.963 69.226 23.754 65.463 C 22.296 61.084 21.587 56.892 21.587 52.791 C 21.587 48.215 22.578 44.22 24.508 40.869 C 25.936 38.245 28.066 36.05 30.63 34.509 C 33.107 32.963 35.993 32.119 38.91 32.06 C 39.931 32.06 41.037 32.206 42.205 32.497 C 43.051 32.731 44.07 33.109 45.325 33.575 C 46.927 34.187 47.802 34.566 48.095 34.653 C 49.028 35.003 49.815 35.149 50.427 35.149 C 50.893 35.149 51.564 35.003 52.308 34.771 C 52.73 34.625 53.532 34.362 54.669 33.868 C 55.795 33.459 56.687 33.109 57.395 32.847 C 58.473 32.526 59.518 32.235 60.456 32.088 C 61.593 31.914 62.721 31.854 63.803 31.942 C 65.874 32.088 67.767 32.526 69.46 33.166 C 72.433 34.362 74.831 36.227 76.622 38.879 C 75.863 39.345 75.164 39.887 74.508 40.482 C 73.089 41.735 71.884 43.221 70.922 44.87 C 69.669 47.115 69.027 49.651 69.044 52.216 C 69.088 55.373 69.89 58.147 71.493 60.552 C 72.621 62.301 74.127 63.799 75.964 65.03 C 76.867 65.642 77.66 66.064 78.413 66.342 C 78.063 67.435 77.678 68.5 77.232 69.549 C 76.22 71.902 75.017 74.156 73.587 76.283 C 72.328 78.12 71.338 79.49 70.585 80.393 C 69.414 81.793 68.283 82.842 67.146 83.592 C 65.894 84.423 64.42 84.862 62.914 84.862 C 61.893 84.906 60.874 84.775 59.899 84.493 C 59.053 84.215 58.22 83.905 57.404 83.55 C 56.549 83.159 55.666 82.827 54.765 82.56 C 53.657 82.269 52.52 82.129 51.372 82.132 C 50.207 82.132 49.07 82.278 47.99 82.553 C 47.087 82.809 46.212 83.124 45.346 83.5 C 44.122 84.01 43.32 84.346 42.854 84.491 C 41.909 84.77 40.941 84.939 39.968 85 C 38.453 85 37.04 84.563 35.674 83.651 L 35.672 83.653 Z  M 55.653 29.841 C 53.67 30.831 51.787 31.251 49.901 31.111 C 49.61 29.229 49.901 27.292 50.688 25.173 C 51.387 23.365 52.321 21.734 53.602 20.276 C 54.942 18.761 56.547 17.506 58.353 16.603 C 60.277 15.612 62.113 15.087 63.862 15 C 64.096 16.983 63.862 18.935 63.134 21.034 C 62.47 22.899 61.479 24.62 60.22 26.166 C 58.952 27.681 57.378 28.936 55.653 29.841 Z " fill="rgb(153,153,153)"/></svg>
